icons/svg/gender-male-female.svg

﻿<?xml version="1.0" encoding="utf-8"?>
<!DOCTYPE svg PUBLIC "-//W3C//DTD SVG 1.1//EN" "http://www.w3.org/Graphics/SVG/1.1/DTD/svg11.dtd">
<svg xmlns="http://www.w3.org/2000/svg" xmlns:xlink="http://www.w3.org/1999/xlink" version="1.1" baseProfile="full" width="24" height="24" viewBox="0 0 24.00 24.00" enable-background="new 0 0 24.00 24.00" xml:space="preserve">
	<path fill="#000000" fill-opacity="1" stroke-width="0.2" stroke-linejoin="round" d="M 17.5815,4.00001L 14,4.00002L 14,2.00003L 21,2.00002L 21,9.00002L 19,9.00002L 19,5.4099L 15.1699,9.24001C 15.6945,10.031 16,10.9798 16,12C 16,14.419 14.2822,16.4367 12,16.9L 12,19L 14,19L 14,21L 12,21L 12,23L 10,23L 10,21L 8,21L 8,19L 10,19L 10,16.9C 7.71776,16.4367 6,14.419 6,12C 6,9.23858 8.23858,7 11,7C 12.018,7 12.9649,7.30421 13.7548,7.82668L 17.5815,4.00001 Z M 11,9C 9.34314,9 8,10.3432 8,12C 8,13.6569 9.34314,15 11,15C 12.6568,15 14,13.6569 14,12C 14,10.3432 12.6569,9 11,9 Z "/>
</svg>

<svg xmlns="http://www.w3.org/2000/svg" version="1.1" baseProfile="full" width="24" height="24" viewBox="0 0 24.00 24.00" xml:space="preserve"><path fill="#000" fill-opacity="1" stroke-width=".2" stroke-linejoin="round" d="M17.581 4H14V2h7v7h-2V5.41l-3.83 3.83c.524.79.83 1.74.83 2.76 0 2.42-1.718 4.437-4 4.9V19h2v2h-2v2h-2v-2H8v-2h2v-2.1c-2.282-.463-4-2.48-4-4.9 0-2.76 2.24-5 5-5 1.018 0 1.965.304 2.755.827L17.58 4zM11 9c-1.657 0-3 1.343-3 3s1.343 3 3 3 3-1.343 3-3-1.343-3-3-3z"/></svg>
